status/16/dialog-error.svg

<?xml version="1.0" encoding="UTF-8" standalone="no"?>
<svg
   xmlns:dc="http://purl.org/dc/elements/1.1/"
   xmlns:cc="http://creativecommons.org/ns#"
   xmlns:rdf="http://www.w3.org/1999/02/22-rdf-syntax-ns#"
   xmlns:svg="http://www.w3.org/2000/svg"
   xmlns="http://www.w3.org/2000/svg"
   xmlns:xlink="http://www.w3.org/1999/xlink"
   version="1.0"
   width="16"
   height="16"
   id="svg2528">
  <metadata
     id="metadata26">
    <rdf:RDF>
      <cc:Work
         rdf:about="">
        <dc:format>image/svg+xml</dc:format>
        <dc:type
           rdf:resource="http://purl.org/dc/dcmitype/StillImage" />
        <dc:title />
      </cc:Work>
    </rdf:RDF>
  </metadata>
  <defs
     id="defs2530">
    <linearGradient
       id="linearGradient4011">
      <stop
         id="stop4013"
         style="stop-color:#ffffff;stop-opacity:1"
         offset="0" />
      <stop
         id="stop4015"
         style="stop-color:#ffffff;stop-opacity:0.23529412"
         offset="0.507761" />
      <stop
         id="stop4017"
         style="stop-color:#ffffff;stop-opacity:0.15686275"
         offset="0.83456558" />
      <stop
         id="stop4019"
         style="stop-color:#ffffff;stop-opacity:0.39215687"
         offset="1" />
    </linearGradient>
    <linearGradient
       id="linearGradient947">
      <stop
         offset="0"
         style="stop-color:#ed5353;stop-opacity:1"
         id="stop943" />
      <stop
         offset="1"
         style="stop-color:#c6262e;stop-opacity:1"
         id="stop945" />
    </linearGradient>
    <linearGradient
       x1="71.204407"
       y1="6.2375584"
       x2="71.204407"
       y2="44.340794"
       id="linearGradient12398-3"
       xlink:href="#linearGradient4011"
       gradientUnits="userSpaceOnUse"
       gradientTransform="matrix(0.35135153,0,0,0.35135153,-17.203685,-0.90930504)" />
    <linearGradient
       x1="2035.1652"
       y1="3208.0737"
       x2="2035.1652"
       y2="3241.9966"
       id="linearGradient11527-6-5"
       xlink:href="#linearGradient947"
       gradientUnits="userSpaceOnUse"
       gradientTransform="matrix(0.57484957,0,0,0.4297553,-1164.0142,-1377.7717)" />
  </defs>
  <path
     style="color:#000000;display:inline;overflow:visible;visibility:visible;opacity:0.98999999;fill:url(#linearGradient11527-6-5);fill-opacity:1;fill-rule:nonzero;stroke:none;stroke-width:0.99999982;marker:none;enable-background:accumulate"
     id="path2555-7-8-5-0-9"
     d="m 7.9999999,0.50000026 c -4.138243,0 -7.49999996,3.36175724 -7.49999996,7.49999984 C 0.49999994,12.138243 3.8617569,15.5 7.9999999,15.5 12.138243,15.5 15.500007,12.138243 15.5,8.0000001 15.5,3.8617575 12.138243,0.50000026 7.9999999,0.50000026 Z" />
  <path
     style="color:#000000;display:inline;overflow:visible;visibility:visible;opacity:0.5;fill:none;stroke:#7a0000;stroke-width:0.99999988;stroke-linecap:round;stroke-linejoin:round;stroke-miterlimit:4;stroke-dasharray:none;stroke-dashoffset:0;stroke-opacity:1;marker:none;enable-background:accumulate"
     id="path2555-7-8-5-1"
     d="m 7.9999999,0.50000016 c -4.138243,0 -7.49999996,3.36175724 -7.49999996,7.49999994 C 0.49999994,12.138243 3.8617569,15.5 7.9999999,15.5 12.138243,15.5 15.500007,12.138243 15.5,8.0000001 15.5,3.8617574 12.138243,0.50000016 7.9999999,0.50000016 Z" />
  <path
     style="color:#000000;display:inline;overflow:visible;visibility:visible;opacity:0.4;fill:none;stroke:url(#linearGradient12398-3);stroke-width:0.99999988;stroke-linecap:round;stroke-linejoin:round;stroke-miterlimit:4;stroke-dasharray:none;stroke-dashoffset:0;stroke-opacity:1;marker:none;enable-background:accumulate"
     id="path8655-6-0-9-5-0"
     d="M 14.5,7.9997641 C 14.5,11.589736 11.589634,14.5 8.0000789,14.5 c -3.589884,0 -6.500079,-2.910298 -6.500079,-6.5002359 0,-3.5898015 2.910195,-6.4997709 6.500079,-6.4997709 3.5895551,0 6.4999211,2.9099694 6.4999211,6.4997709 z" />
  <path
     style="opacity:0.05;vector-effect:none;fill:#7a0000;fill-opacity:1;stroke:none;stroke-width:0.84323651;stroke-linecap:butt;stroke-linejoin:miter;stroke-miterlimit:4;stroke-dasharray:none;stroke-dashoffset:0;stroke-opacity:1;marker:none;font-variant-east_asian:normal"
     id="path4156-3-6"
     d="M 7,3 A 1.0001,1.0001 0 0 0 6,4 v 4 a 1.0001,1.0001 0 0 0 0.013672,0.1640625 l 0.5,2.9999995 a 1.0001,1.0001 0 0 0 0.1699219,0.410157 C 6.2795432,11.948066 6,12.447764 6,13 c 0,1.047198 0.9528024,2 2,2 1.0471976,0 2,-0.952802 2,-2 0,-0.552236 -0.2795432,-1.051934 -0.6835938,-1.425781 a 1.0001,1.0001 0 0 0 0.1699219,-0.410157 l 0.5,-2.9999995 A 1.0001,1.0001 0 0 0 10,8 V 4 A 1.0001,1.0001 0 0 0 9,3 Z" />
  <path
     id="path4156-3"
     d="m 7,4 v 4 l 0.5,3 h 1 L 9,8 V 4 Z m 1,8 a 1,1 0 0 0 -1,1 1,1 0 0 0 1,1 1,1 0 0 0 1,-1 1,1 0 0 0 -1,-1 z"
     style="opacity:0.15;fill:#7a0000;fill-opacity:1;stroke:none;stroke-width:0.84323651;stroke-linecap:butt;stroke-linejoin:miter;stroke-miterlimit:4;stroke-dasharray:none;stroke-opacity:1;font-variant-east_asian:normal;vector-effect:none;stroke-dashoffset:0;marker:none" />
  <path
     id="path4156"
     d="m 7,3 v 4 l 0.5,3 h 1 L 9,7 V 3 Z m 1,8 a 1,1 0 0 0 -1,1 1,1 0 0 0 1,1 1,1 0 0 0 1,-1 1,1 0 0 0 -1,-1 z"
     style="opacity:1;fill:#ffffff;fill-opacity:1;stroke:none;stroke-width:2;stroke-linecap:butt;stroke-linejoin:round;stroke-miterlimit:4;stroke-dasharray:none;stroke-opacity:1" />
</svg>

<?xml version="1.0" encoding="UTF-8" standalone="no"?>
<svg
   xmlns:dc="http://purl.org/dc/elements/1.1/"
   xmlns:cc="http://creativecommons.org/ns#"
   xmlns:rdf="http://www.w3.org/1999/02/22-rdf-syntax-ns#"
   xmlns:svg="http://www.w3.org/2000/svg"
   xmlns="http://www.w3.org/2000/svg"
   xmlns:xlink="http://www.w3.org/1999/xlink"
   version="1.1"
   width="16"
   height="16"
   id="svg3033">
  <defs
     id="defs3035">
    <linearGradient
       x1="71.204407"
       y1="6.2375584"
       x2="71.204407"
       y2="44.340794"
       id="linearGradient3280"
       xlink:href="#linearGradient4011"
       gradientUnits="userSpaceOnUse"
       gradientTransform="matrix(0.35135136,0,0,0.35135136,-17.203671,-0.90930025)" />
    <linearGradient
       id="linearGradient4011">
      <stop
         id="stop4013"
         style="stop-color:#ffffff;stop-opacity:1"
         offset="0" />
      <stop
         id="stop4015"
         style="stop-color:#ffffff;stop-opacity:0.23529412"
         offset="0.507761" />
      <stop
         id="stop4017"
         style="stop-color:#ffffff;stop-opacity:0.15686275"
         offset="0.83456558" />
      <stop
         id="stop4019"
         style="stop-color:#ffffff;stop-opacity:0.39215687"
         offset="1" />
    </linearGradient>
    <linearGradient
       id="linearGradient3242">
      <stop
         id="stop3244"
         style="stop-color:#f8b17e;stop-opacity:1"
         offset="0" />
      <stop
         id="stop3246"
         style="stop-color:#e35d4f;stop-opacity:1"
         offset="0.26238" />
      <stop
         id="stop3248"
         style="stop-color:#c6262e;stop-opacity:1"
         offset="0.66093999" />
      <stop
         id="stop3250"
         style="stop-color:#690b54;stop-opacity:1"
         offset="1" />
    </linearGradient>
    <linearGradient
       id="linearGradient2490">
      <stop
         id="stop2492"
         style="stop-color:#791235;stop-opacity:1"
         offset="0" />
      <stop
         id="stop2494"
         style="stop-color:#dd3b27;stop-opacity:1"
         offset="1" />
    </linearGradient>
    <radialGradient
       cx="23.895569"
       cy="3.9900031"
       r="20.397499"
       fx="23.895569"
       fy="3.9900031"
       id="radialGradient3029"
       xlink:href="#linearGradient3242"
       gradientUnits="userSpaceOnUse"
       gradientTransform="matrix(0,0.8796593,-1.1611346,0,12.632931,-21.08413)" />
    <linearGradient
       x1="18.379412"
       y1="44.980297"
       x2="18.379412"
       y2="3.0816143"
       id="linearGradient3031"
       xlink:href="#linearGradient2490"
       gradientUnits="userSpaceOnUse"
       gradientTransform="matrix(0.3685738,0,0,0.3685738,-0.84577,-0.84576985)" />
  </defs>
  <metadata
     id="metadata3038">
    <rdf:RDF>
      <cc:Work
         rdf:about="">
        <dc:format>image/svg+xml</dc:format>
        <dc:type
           rdf:resource="http://purl.org/dc/dcmitype/StillImage" />
        <dc:title />
      </cc:Work>
    </rdf:RDF>
  </metadata>
  <path
     style="fill:url(#radialGradient3029);fill-opacity:1;stroke:url(#linearGradient3031);stroke-width:1.00365424;stroke-linecap:round;stroke-linejoin:round;stroke-miterlimit:4;stroke-dasharray:none;stroke-dashoffset:0;stroke-opacity:1"
     id="path2555"
     d="m 8.0000011,0.50182812 c -4.1372321,0 -7.4981741,3.36093918 -7.4981741,7.49817178 0,4.1372331 3.360942,7.4981751 7.4981741,7.4981721 4.1372309,0 7.4981759,-3.360939 7.4981719,-7.4981721 0,-4.1372326 -3.360941,-7.49817178 -7.4981719,-7.49817178 z" />
  <path
     style="color:#000000;display:inline;overflow:visible;visibility:visible;opacity:0.5;fill:none;stroke:url(#linearGradient3280);stroke-width:0.99999994;stroke-linecap:round;stroke-linejoin:round;stroke-miterlimit:4;stroke-dasharray:none;stroke-dashoffset:0;stroke-opacity:1;marker:none;enable-background:accumulate"
     id="path8655-6"
     d="M 14.5,7.999769 C 14.5,11.589737 11.589636,14.5 8.0000824,14.5 4.4101993,14.5 1.5,11.589703 1.5,7.999769 1.5,4.4099697 4.4101993,1.5000003 8.0000824,1.5000003 11.589636,1.5000003 14.5,4.4099697 14.5,7.999769 l 0,0 z" />
  <path
     id="path4166"
     d="m 7,4 0,4 0.5,3 1,0 L 9,8 9,4 7,4 Z m 1,8 a 1,1 0 0 0 -1,1 1,1 0 0 0 1,1 1,1 0 0 0 1,-1 1,1 0 0 0 -1,-1 z"
     style="opacity:0.05;fill:#000000;fill-opacity:1;stroke:#000000;stroke-width:2;stroke-linecap:butt;stroke-linejoin:round;stroke-miterlimit:4;stroke-dasharray:none;stroke-opacity:1" />
  <path
     style="opacity:0.15;fill:#000000;fill-opacity:1;stroke:none;stroke-width:2;stroke-linecap:butt;stroke-linejoin:round;stroke-miterlimit:4;stroke-dasharray:none;stroke-opacity:1"
     d="m 7,4 0,4 0.5,3 1,0 L 9,8 9,4 7,4 Z m 1,8 a 1,1 0 0 0 -1,1 1,1 0 0 0 1,1 1,1 0 0 0 1,-1 1,1 0 0 0 -1,-1 z"
     id="path4164" />
  <path
     id="path4156"
     d="M 7 3 L 7 7 L 7.5 10 L 8.5 10 L 9 7 L 9 3 L 7 3 z M 8 11 A 1 1 0 0 0 7 12 A 1 1 0 0 0 8 13 A 1 1 0 0 0 9 12 A 1 1 0 0 0 8 11 z "
     style="opacity:1;fill:#ffffff;fill-opacity:1;stroke:none;stroke-width:2;stroke-linecap:butt;stroke-linejoin:round;stroke-miterlimit:4;stroke-dasharray:none;stroke-opacity:1" />
</svg>
